docs/Library/Material/Material3D/Concrete/CustomCDP.EX3.svg

<svg xmlns="http://www.w3.org/2000/svg" width="750" height="300" viewBox="0 0 750 300"><title>Gnuplot</title><desc>Produced by GNUPLOT 5.4 patchlevel 5</desc><path fill="none" d="M0 0h750v300H0z"/><path fill="none" stroke="gray" stroke-dasharray="2,4" stroke-width=".5" d="M64.14 242.4h660.68" class="gridline" color="gray"/><g fill="none" stroke="currentColor" color="#000"><path stroke="#000" d="M64.14 242.4h9m651.68 0h-9"/><text fill="#000" stroke="none" font-family="Arial" font-size="12" text-anchor="end" transform="translate(55.75 246.3)"><tspan> 0</tspan></text></g><path fill="none" stroke="gray" stroke-dasharray="2,4" stroke-width=".5" d="M64.14 197.52h660.68" class="gridline" color="gray"/><g fill="none" stroke="currentColor" color="#000"><path stroke="#000" d="M64.14 197.52h9m651.68 0h-9"/><text fill="#000" stroke="none" font-family="Arial" font-size="12" text-anchor="end" transform="translate(55.75 201.42)"><tspan> 2</tspan></text></g><path fill="none" stroke="gray" stroke-dasharray="2,4" stroke-width=".5" d="M64.14 152.64h660.68" class="gridline" color="gray"/><g fill="none" stroke="currentColor" color="#000"><path stroke="#000" d="M64.14 152.64h9m651.68 0h-9"/><text fill="#000" stroke="none" font-family="Arial" font-size="12" text-anchor="end" transform="translate(55.75 156.54)"><tspan> 4</tspan></text></g><path fill="none" stroke="gray" stroke-dasharray="2,4" stroke-width=".5" d="M64.14 107.77h660.68" class="gridline" color="gray"/><g fill="none" stroke="currentColor" color="#000"><path stroke="#000" d="M64.14 107.77h9m651.68 0h-9"/><text fill="#000" stroke="none" font-family="Arial" font-size="12" text-anchor="end" transform="translate(55.75 111.67)"><tspan> 6</tspan></text></g><path fill="none" stroke="gray" stroke-dasharray="2,4" stroke-width=".5" d="M64.14 62.89h660.68" class="gridline" color="gray"/><g fill="none" stroke="currentColor" color="#000"><path stroke="#000" d="M64.14 62.89h9m651.68 0h-9"/><text fill="#000" stroke="none" font-family="Arial" font-size="12" text-anchor="end" transform="translate(55.75 66.79)"><tspan> 8</tspan></text></g><path fill="none" stroke="gray" stroke-dasharray="2,4" stroke-width=".5" d="M64.14 18.01h660.68" class="gridline" color="gray"/><g fill="none" stroke="currentColor" color="#000"><path stroke="#000" d="M64.14 18.01h9m651.68 0h-9"/><text fill="#000" stroke="none" font-family="Arial" font-size="12" text-anchor="end" transform="translate(55.75 21.91)"><tspan> 10</tspan></text></g><path fill="none" stroke="gray" stroke-dasharray="2,4" stroke-width=".5" d="M64.14 242.4V18.01" class="gridline" color="gray"/><g fill="none" stroke="currentColor" color="#000"><path stroke="#000" d="M64.14 242.4v-9m0-215.39v9"/><text fill="#000" stroke="none" font-family="Arial" font-size="12" text-anchor="middle" transform="translate(64.14 264.3)"><tspan> 0</tspan></text></g><path fill="none" stroke="gray" stroke-dasharray="2,4" stroke-width=".5" d="M196.28 242.4V18.01" class="gridline" color="gray"/><g fill="none" stroke="currentColor" color="#000"><path stroke="#000" d="M196.28 242.4v-9m0-215.39v9"/><text fill="#000" stroke="none" font-family="Arial" font-size="12" text-anchor="middle" transform="translate(196.28 264.3)"><tspan> 0.2</tspan></text></g><path fill="none" stroke="gray" stroke-dasharray="2,4" stroke-width=".5" d="M328.41 242.4V18.01" class="gridline" color="gray"/><g fill="none" stroke="currentColor" color="#000"><path stroke="#000" d="M328.41 242.4v-9m0-215.39v9"/><text fill="#000" stroke="none" font-family="Arial" font-size="12" text-anchor="middle" transform="translate(328.41 264.3)"><tspan> 0.4</tspan></text></g><path fill="none" stroke="gray" stroke-dasharray="2,4" stroke-width=".5" d="M460.55 242.4V18.01" class="gridline" color="gray"/><g fill="none" stroke="currentColor" color="#000"><path stroke="#000" d="M460.55 242.4v-9m0-215.39v9"/><text fill="#000" stroke="none" font-family="Arial" font-size="12" text-anchor="middle" transform="translate(460.55 264.3)"><tspan> 0.6</tspan></text></g><path fill="none" stroke="gray" stroke-dasharray="2,4" stroke-width=".5" d="M592.68 242.4V18.01" class="gridline" color="gray"/><g fill="none" stroke="currentColor" color="#000"><path stroke="#000" d="M592.68 242.4v-9m0-215.39v9"/><text fill="#000" stroke="none" font-family="Arial" font-size="12" text-anchor="middle" transform="translate(592.68 264.3)"><tspan> 0.8</tspan></text></g><path fill="none" stroke="gray" stroke-dasharray="2,4" stroke-width=".5" d="M724.82 242.4V18.01" class="gridline" color="gray"/><g fill="none" stroke="currentColor" color="#000"><path stroke="#000" d="M724.82 242.4v-9m0-215.39v9"/><text fill="#000" stroke="none" font-family="Arial" font-size="12" text-anchor="middle" transform="translate(724.82 264.3)"><tspan> 1</tspan></text></g><path fill="none" stroke="#000" d="M64.14 18.01V242.4h660.68V18.01z" color="#000"/><text color="#000" font-family="Arial" font-size="12" text-anchor="middle" transform="rotate(-90 74.695 55.515)"><tspan>stress</tspan></text><text color="#000" font-family="Arial" font-size="12" text-anchor="middle" transform="translate(394.48 291.3)"><tspan>kappa</tspan></text><title>&quot;KS&quot; u ($1/.2):2</title><path fill="none" stroke="#9400d3" stroke-width="2" d="M64.14 242.4v-56.1m0-168.29 17.91 5.47 17.43 5.33 16.97 5.21 16.52 5.07 16.09 4.96 15.67 4.83 15.25 4.71 14.85 4.6 14.47 4.49 14.09 4.38 13.72 4.27 13.36 4.17 13.02 4.06 12.67 3.97 12.35 3.87 12.03 3.77 11.72 3.69 11.41 3.59 11.13 3.5 10.83 3.42 10.56 3.34 10.28 3.26 10.02 3.17 9.77 3.1 9.51 3.02 9.27 2.95 9.04 2.88 8.8 2.81 8.58 2.73 8.36 2.68 8.15 2.6 7.94 2.55 7.74 2.48 7.55 2.42 7.35 2.36 7.17 2.3 6.98 2.25 6.81 2.19 6.64 2.14 6.47 2.09 6.31 2.04 6.15 1.98 5.99 1.94 5.85 1.89 5.7 1.85 5.55 1.8 5.42 1.75 5.28 1.71 5.14 1.68 5.02 1.63 4.9 1.59 4.77 1.55 4.65 1.51 4.54 1.48 4.42 1.44 4.31 1.41 4.21 1.37 4.1 1.34 4 1.3 3.9 1.28 3.8 1.24 3.71 1.21 3.62 1.18 3.53 1.16 3.44 1.12 3.35 1.1 3.28 1.07 3.19 1.05 3.11 1.02 3.04.99 2.96.97 2.88.95 2.82.93 2.75.9 2.68.88 2.61.85 2.55.84 2.49.82 2.42.8 2.37.77 2.31.76 2.25.74 2.2.72 2.14.71 2.09.68 2.04.67 1.99.66 1.94.64 1.89.62 1.84.61 1.81.59 1.75.58 1.72.56 1.66.54 1.87.42 2.08.44" color="#000"/><path fill="none" stroke="#000" d="M64.14 18.01V242.4h660.68V18.01z" color="#000"/></svg>

<?xml version="1.0" encoding="windows-1252"  standalone="no"?>
<svg 
 width="750" height="300"
 viewBox="0 0 750 300"
 xmlns="http://www.w3.org/2000/svg"
 xmlns:xlink="http://www.w3.org/1999/xlink"
>

<title>Gnuplot</title>
<desc>Produced by GNUPLOT 5.4 patchlevel 5 </desc>

<g id="gnuplot_canvas">

<rect x="0" y="0" width="750" height="300" fill="none"/>
<defs>

	<circle id='gpDot' r='0.5' stroke-width='0.5' stroke='currentColor'/>
	<path id='gpPt0' stroke-width='0.222' stroke='currentColor' d='M-1,0 h2 M0,-1 v2'/>
	<path id='gpPt1' stroke-width='0.222' stroke='currentColor' d='M-1,-1 L1,1 M1,-1 L-1,1'/>
	<path id='gpPt2' stroke-width='0.222' stroke='currentColor' d='M-1,0 L1,0 M0,-1 L0,1 M-1,-1 L1,1 M-1,1 L1,-1'/>
	<rect id='gpPt3' stroke-width='0.222' stroke='currentColor' x='-1' y='-1' width='2' height='2'/>
	<rect id='gpPt4' stroke-width='0.222' stroke='currentColor' fill='currentColor' x='-1' y='-1' width='2' height='2'/>
	<circle id='gpPt5' stroke-width='0.222' stroke='currentColor' cx='0' cy='0' r='1'/>
	<use xlink:href='#gpPt5' id='gpPt6' fill='currentColor' stroke='none'/>
	<path id='gpPt7' stroke-width='0.222' stroke='currentColor' d='M0,-1.33 L-1.33,0.67 L1.33,0.67 z'/>
	<use xlink:href='#gpPt7' id='gpPt8' fill='currentColor' stroke='none'/>
	<use xlink:href='#gpPt7' id='gpPt9' stroke='currentColor' transform='rotate(180)'/>
	<use xlink:href='#gpPt9' id='gpPt10' fill='currentColor' stroke='none'/>
	<use xlink:href='#gpPt3' id='gpPt11' stroke='currentColor' transform='rotate(45)'/>
	<use xlink:href='#gpPt11' id='gpPt12' fill='currentColor' stroke='none'/>
	<path id='gpPt13' stroke-width='0.222' stroke='currentColor' d='M0,1.330 L1.265,0.411 L0.782,-1.067 L-0.782,-1.076 L-1.265,0.411 z'/>
	<use xlink:href='#gpPt13' id='gpPt14' fill='currentColor' stroke='none'/>
	<filter id='textbox' filterUnits='objectBoundingBox' x='0' y='0' height='1' width='1'>
	  <feFlood flood-color='white' flood-opacity='1' result='bgnd'/>
	  <feComposite in='SourceGraphic' in2='bgnd' operator='atop'/>
	</filter>
	<filter id='greybox' filterUnits='objectBoundingBox' x='0' y='0' height='1' width='1'>
	  <feFlood flood-color='lightgrey' flood-opacity='1' result='grey'/>
	  <feComposite in='SourceGraphic' in2='grey' operator='atop'/>
	</filter>
</defs>
<g fill="none" color="white" stroke="currentColor" stroke-width="1.00" stroke-linecap="butt" stroke-linejoin="miter">
</g>
<g fill="none" color="black" stroke="currentColor" stroke-width="1.00" stroke-linecap="butt" stroke-linejoin="miter">
</g>
<g fill="none" color="black" stroke="black" stroke-width="0.50" stroke-linecap="butt" stroke-linejoin="miter">
</g>
<g fill="none" color="gray" stroke="currentColor" stroke-width="0.50" stroke-linecap="butt" stroke-linejoin="miter">
	<path stroke='gray' stroke-dasharray='2,4' class="gridline"  d='M64.14,242.40 L724.82,242.40  '/></g>
<g fill="none" color="gray" stroke="gray" stroke-width="1.00" stroke-linecap="butt" stroke-linejoin="miter">
</g>
<g fill="none" color="black" stroke="currentColor" stroke-width="1.00" stroke-linecap="butt" stroke-linejoin="miter">
	<path stroke='black'  d='M64.14,242.40 L73.14,242.40 M724.82,242.40 L715.82,242.40  '/>	<g transform="translate(55.75,246.30)" stroke="none" fill="black" font-family="Arial" font-size="12.00"  text-anchor="end">
		<text><tspan font-family="Arial" > 0</tspan></text>
	</g>
</g>
<g fill="none" color="black" stroke="currentColor" stroke-width="1.00" stroke-linecap="butt" stroke-linejoin="miter">
</g>
<g fill="none" color="black" stroke="black" stroke-width="0.50" stroke-linecap="butt" stroke-linejoin="miter">
</g>
<g fill="none" color="gray" stroke="currentColor" stroke-width="0.50" stroke-linecap="butt" stroke-linejoin="miter">
	<path stroke='gray' stroke-dasharray='2,4' class="gridline"  d='M64.14,197.52 L724.82,197.52  '/></g>
<g fill="none" color="gray" stroke="gray" stroke-width="1.00" stroke-linecap="butt" stroke-linejoin="miter">
</g>
<g fill="none" color="black" stroke="currentColor" stroke-width="1.00" stroke-linecap="butt" stroke-linejoin="miter">
	<path stroke='black'  d='M64.14,197.52 L73.14,197.52 M724.82,197.52 L715.82,197.52  '/>	<g transform="translate(55.75,201.42)" stroke="none" fill="black" font-family="Arial" font-size="12.00"  text-anchor="end">
		<text><tspan font-family="Arial" > 2</tspan></text>
	</g>
</g>
<g fill="none" color="black" stroke="currentColor" stroke-width="1.00" stroke-linecap="butt" stroke-linejoin="miter">
</g>
<g fill="none" color="black" stroke="black" stroke-width="0.50" stroke-linecap="butt" stroke-linejoin="miter">
</g>
<g fill="none" color="gray" stroke="currentColor" stroke-width="0.50" stroke-linecap="butt" stroke-linejoin="miter">
	<path stroke='gray' stroke-dasharray='2,4' class="gridline"  d='M64.14,152.64 L724.82,152.64  '/></g>
<g fill="none" color="gray" stroke="gray" stroke-width="1.00" stroke-linecap="butt" stroke-linejoin="miter">
</g>
<g fill="none" color="black" stroke="currentColor" stroke-width="1.00" stroke-linecap="butt" stroke-linejoin="miter">
	<path stroke='black'  d='M64.14,152.64 L73.14,152.64 M724.82,152.64 L715.82,152.64  '/>	<g transform="translate(55.75,156.54)" stroke="none" fill="black" font-family="Arial" font-size="12.00"  text-anchor="end">
		<text><tspan font-family="Arial" > 4</tspan></text>
	</g>
</g>
<g fill="none" color="black" stroke="currentColor" stroke-width="1.00" stroke-linecap="butt" stroke-linejoin="miter">
</g>
<g fill="none" color="black" stroke="black" stroke-width="0.50" stroke-linecap="butt" stroke-linejoin="miter">
</g>
<g fill="none" color="gray" stroke="currentColor" stroke-width="0.50" stroke-linecap="butt" stroke-linejoin="miter">
	<path stroke='gray' stroke-dasharray='2,4' class="gridline"  d='M64.14,107.77 L724.82,107.77  '/></g>
<g fill="none" color="gray" stroke="gray" stroke-width="1.00" stroke-linecap="butt" stroke-linejoin="miter">
</g>
<g fill="none" color="black" stroke="currentColor" stroke-width="1.00" stroke-linecap="butt" stroke-linejoin="miter">
	<path stroke='black'  d='M64.14,107.77 L73.14,107.77 M724.82,107.77 L715.82,107.77  '/>	<g transform="translate(55.75,111.67)" stroke="none" fill="black" font-family="Arial" font-size="12.00"  text-anchor="end">
		<text><tspan font-family="Arial" > 6</tspan></text>
	</g>
</g>
<g fill="none" color="black" stroke="currentColor" stroke-width="1.00" stroke-linecap="butt" stroke-linejoin="miter">
</g>
<g fill="none" color="black" stroke="black" stroke-width="0.50" stroke-linecap="butt" stroke-linejoin="miter">
</g>
<g fill="none" color="gray" stroke="currentColor" stroke-width="0.50" stroke-linecap="butt" stroke-linejoin="miter">
	<path stroke='gray' stroke-dasharray='2,4' class="gridline"  d='M64.14,62.89 L724.82,62.89  '/></g>
<g fill="none" color="gray" stroke="gray" stroke-width="1.00" stroke-linecap="butt" stroke-linejoin="miter">
</g>
<g fill="none" color="black" stroke="currentColor" stroke-width="1.00" stroke-linecap="butt" stroke-linejoin="miter">
	<path stroke='black'  d='M64.14,62.89 L73.14,62.89 M724.82,62.89 L715.82,62.89  '/>	<g transform="translate(55.75,66.79)" stroke="none" fill="black" font-family="Arial" font-size="12.00"  text-anchor="end">
		<text><tspan font-family="Arial" > 8</tspan></text>
	</g>
</g>
<g fill="none" color="black" stroke="currentColor" stroke-width="1.00" stroke-linecap="butt" stroke-linejoin="miter">
</g>
<g fill="none" color="black" stroke="black" stroke-width="0.50" stroke-linecap="butt" stroke-linejoin="miter">
</g>
<g fill="none" color="gray" stroke="currentColor" stroke-width="0.50" stroke-linecap="butt" stroke-linejoin="miter">
	<path stroke='gray' stroke-dasharray='2,4' class="gridline"  d='M64.14,18.01 L724.82,18.01  '/></g>
<g fill="none" color="gray" stroke="gray" stroke-width="1.00" stroke-linecap="butt" stroke-linejoin="miter">
</g>
<g fill="none" color="black" stroke="currentColor" stroke-width="1.00" stroke-linecap="butt" stroke-linejoin="miter">
	<path stroke='black'  d='M64.14,18.01 L73.14,18.01 M724.82,18.01 L715.82,18.01  '/>	<g transform="translate(55.75,21.91)" stroke="none" fill="black" font-family="Arial" font-size="12.00"  text-anchor="end">
		<text><tspan font-family="Arial" > 10</tspan></text>
	</g>
</g>
<g fill="none" color="black" stroke="currentColor" stroke-width="1.00" stroke-linecap="butt" stroke-linejoin="miter">
</g>
<g fill="none" color="black" stroke="black" stroke-width="0.50" stroke-linecap="butt" stroke-linejoin="miter">
</g>
<g fill="none" color="gray" stroke="currentColor" stroke-width="0.50" stroke-linecap="butt" stroke-linejoin="miter">
	<path stroke='gray' stroke-dasharray='2,4' class="gridline"  d='M64.14,242.40 L64.14,18.01  '/></g>
<g fill="none" color="gray" stroke="gray" stroke-width="1.00" stroke-linecap="butt" stroke-linejoin="miter">
</g>
<g fill="none" color="black" stroke="currentColor" stroke-width="1.00" stroke-linecap="butt" stroke-linejoin="miter">
	<path stroke='black'  d='M64.14,242.40 L64.14,233.40 M64.14,18.01 L64.14,27.01  '/>	<g transform="translate(64.14,264.30)" stroke="none" fill="black" font-family="Arial" font-size="12.00"  text-anchor="middle">
		<text><tspan font-family="Arial" > 0</tspan></text>
	</g>
</g>
<g fill="none" color="black" stroke="currentColor" stroke-width="1.00" stroke-linecap="butt" stroke-linejoin="miter">
</g>
<g fill="none" color="black" stroke="black" stroke-width="0.50" stroke-linecap="butt" stroke-linejoin="miter">
</g>
<g fill="none" color="gray" stroke="currentColor" stroke-width="0.50" stroke-linecap="butt" stroke-linejoin="miter">
	<path stroke='gray' stroke-dasharray='2,4' class="gridline"  d='M196.28,242.40 L196.28,18.01  '/></g>
<g fill="none" color="gray" stroke="gray" stroke-width="1.00" stroke-linecap="butt" stroke-linejoin="miter">
</g>
<g fill="none" color="black" stroke="currentColor" stroke-width="1.00" stroke-linecap="butt" stroke-linejoin="miter">
	<path stroke='black'  d='M196.28,242.40 L196.28,233.40 M196.28,18.01 L196.28,27.01  '/>	<g transform="translate(196.28,264.30)" stroke="none" fill="black" font-family="Arial" font-size="12.00"  text-anchor="middle">
		<text><tspan font-family="Arial" > 0.2</tspan></text>
	</g>
</g>
<g fill="none" color="black" stroke="currentColor" stroke-width="1.00" stroke-linecap="butt" stroke-linejoin="miter">
</g>
<g fill="none" color="black" stroke="black" stroke-width="0.50" stroke-linecap="butt" stroke-linejoin="miter">
</g>
<g fill="none" color="gray" stroke="currentColor" stroke-width="0.50" stroke-linecap="butt" stroke-linejoin="miter">
	<path stroke='gray' stroke-dasharray='2,4' class="gridline"  d='M328.41,242.40 L328.41,18.01  '/></g>
<g fill="none" color="gray" stroke="gray" stroke-width="1.00" stroke-linecap="butt" stroke-linejoin="miter">
</g>
<g fill="none" color="black" stroke="currentColor" stroke-width="1.00" stroke-linecap="butt" stroke-linejoin="miter">
	<path stroke='black'  d='M328.41,242.40 L328.41,233.40 M328.41,18.01 L328.41,27.01  '/>	<g transform="translate(328.41,264.30)" stroke="none" fill="black" font-family="Arial" font-size="12.00"  text-anchor="middle">
		<text><tspan font-family="Arial" > 0.4</tspan></text>
	</g>
</g>
<g fill="none" color="black" stroke="currentColor" stroke-width="1.00" stroke-linecap="butt" stroke-linejoin="miter">
</g>
<g fill="none" color="black" stroke="black" stroke-width="0.50" stroke-linecap="butt" stroke-linejoin="miter">
</g>
<g fill="none" color="gray" stroke="currentColor" stroke-width="0.50" stroke-linecap="butt" stroke-linejoin="miter">
	<path stroke='gray' stroke-dasharray='2,4' class="gridline"  d='M460.55,242.40 L460.55,18.01  '/></g>
<g fill="none" color="gray" stroke="gray" stroke-width="1.00" stroke-linecap="butt" stroke-linejoin="miter">
</g>
<g fill="none" color="black" stroke="currentColor" stroke-width="1.00" stroke-linecap="butt" stroke-linejoin="miter">
	<path stroke='black'  d='M460.55,242.40 L460.55,233.40 M460.55,18.01 L460.55,27.01  '/>	<g transform="translate(460.55,264.30)" stroke="none" fill="black" font-family="Arial" font-size="12.00"  text-anchor="middle">
		<text><tspan font-family="Arial" > 0.6</tspan></text>
	</g>
</g>
<g fill="none" color="black" stroke="currentColor" stroke-width="1.00" stroke-linecap="butt" stroke-linejoin="miter">
</g>
<g fill="none" color="black" stroke="black" stroke-width="0.50" stroke-linecap="butt" stroke-linejoin="miter">
</g>
<g fill="none" color="gray" stroke="currentColor" stroke-width="0.50" stroke-linecap="butt" stroke-linejoin="miter">
	<path stroke='gray' stroke-dasharray='2,4' class="gridline"  d='M592.68,242.40 L592.68,18.01  '/></g>
<g fill="none" color="gray" stroke="gray" stroke-width="1.00" stroke-linecap="butt" stroke-linejoin="miter">
</g>
<g fill="none" color="black" stroke="currentColor" stroke-width="1.00" stroke-linecap="butt" stroke-linejoin="miter">
	<path stroke='black'  d='M592.68,242.40 L592.68,233.40 M592.68,18.01 L592.68,27.01  '/>	<g transform="translate(592.68,264.30)" stroke="none" fill="black" font-family="Arial" font-size="12.00"  text-anchor="middle">
		<text><tspan font-family="Arial" > 0.8</tspan></text>
	</g>
</g>
<g fill="none" color="black" stroke="currentColor" stroke-width="1.00" stroke-linecap="butt" stroke-linejoin="miter">
</g>
<g fill="none" color="black" stroke="black" stroke-width="0.50" stroke-linecap="butt" stroke-linejoin="miter">
</g>
<g fill="none" color="gray" stroke="currentColor" stroke-width="0.50" stroke-linecap="butt" stroke-linejoin="miter">
	<path stroke='gray' stroke-dasharray='2,4' class="gridline"  d='M724.82,242.40 L724.82,18.01  '/></g>
<g fill="none" color="gray" stroke="gray" stroke-width="1.00" stroke-linecap="butt" stroke-linejoin="miter">
</g>
<g fill="none" color="black" stroke="currentColor" stroke-width="1.00" stroke-linecap="butt" stroke-linejoin="miter">
	<path stroke='black'  d='M724.82,242.40 L724.82,233.40 M724.82,18.01 L724.82,27.01  '/>	<g transform="translate(724.82,264.30)" stroke="none" fill="black" font-family="Arial" font-size="12.00"  text-anchor="middle">
		<text><tspan font-family="Arial" > 1</tspan></text>
	</g>
</g>
<g fill="none" color="black" stroke="currentColor" stroke-width="1.00" stroke-linecap="butt" stroke-linejoin="miter">
</g>
<g fill="none" color="black" stroke="currentColor" stroke-width="1.00" stroke-linecap="butt" stroke-linejoin="miter">
	<path stroke='black'  d='M64.14,18.01 L64.14,242.40 L724.82,242.40 L724.82,18.01 L64.14,18.01 Z  '/></g>
<g fill="none" color="black" stroke="currentColor" stroke-width="1.00" stroke-linecap="butt" stroke-linejoin="miter">
	<g transform="translate(19.18,130.21) rotate(270)" stroke="none" fill="black" font-family="Arial" font-size="12.00"  text-anchor="middle">
		<text><tspan font-family="Arial" >stress</tspan></text>
	</g>
</g>
<g fill="none" color="black" stroke="currentColor" stroke-width="1.00" stroke-linecap="butt" stroke-linejoin="miter">
	<g transform="translate(394.48,291.30)" stroke="none" fill="black" font-family="Arial" font-size="12.00"  text-anchor="middle">
		<text><tspan font-family="Arial" >kappa</tspan></text>
	</g>
</g>
<g fill="none" color="black" stroke="currentColor" stroke-width="1.00" stroke-linecap="butt" stroke-linejoin="miter">
</g>
	<g id="gnuplot_plot_1" ><title>"KS" u ($1/.2):2</title>
<g fill="none" color="white" stroke="currentColor" stroke-width="2.00" stroke-linecap="butt" stroke-linejoin="miter">
</g>
<g fill="none" color="black" stroke="currentColor" stroke-width="2.00" stroke-linecap="butt" stroke-linejoin="miter">
	<path stroke='rgb(148,   0, 211)'  d='M64.14,242.40 L64.14,186.30 M64.14,18.01 L82.05,23.48 L99.48,28.81 L116.45,34.02 L132.97,39.09 L149.06,44.05
		L164.73,48.88 L179.98,53.59 L194.83,58.19 L209.30,62.68 L223.39,67.06 L237.11,71.33 L250.47,75.50 L263.49,79.56
		L276.16,83.53 L288.51,87.40 L300.54,91.17 L312.26,94.86 L323.67,98.45 L334.80,101.95 L345.63,105.37 L356.19,108.71
		L366.47,111.97 L376.49,115.14 L386.26,118.24 L395.77,121.26 L405.04,124.21 L414.08,127.09 L422.88,129.90 L431.46,132.63
		L439.82,135.31 L447.97,137.91 L455.91,140.46 L463.65,142.94 L471.20,145.36 L478.55,147.72 L485.72,150.02 L492.70,152.27
		L499.51,154.46 L506.15,156.60 L512.62,158.69 L518.93,160.73 L525.08,162.71 L531.07,164.65 L536.92,166.54 L542.62,168.39
		L548.17,170.19 L553.59,171.94 L558.87,173.65 L564.01,175.33 L569.03,176.96 L573.93,178.55 L578.70,180.10 L583.35,181.61
		L587.89,183.09 L592.31,184.53 L596.62,185.94 L600.83,187.31 L604.93,188.65 L608.93,189.95 L612.83,191.23 L616.63,192.47
		L620.34,193.68 L623.96,194.86 L627.49,196.02 L630.93,197.14 L634.28,198.24 L637.56,199.31 L640.75,200.36 L643.86,201.38
		L646.90,202.37 L649.86,203.34 L652.74,204.29 L655.56,205.22 L658.31,206.12 L660.99,207.00 L663.60,207.85 L666.15,208.69
		L668.64,209.51 L671.06,210.31 L673.43,211.08 L675.74,211.84 L677.99,212.58 L680.19,213.30 L682.33,214.01 L684.42,214.69
		L686.46,215.36 L688.45,216.02 L690.39,216.66 L692.28,217.28 L694.12,217.89 L695.93,218.48 L697.68,219.06 L699.40,219.62
		L701.06,220.16 L702.93,220.58 L705.01,221.02  '/></g>
	</g>
<g fill="none" color="black" stroke="currentColor" stroke-width="2.00" stroke-linecap="butt" stroke-linejoin="miter">
</g>
<g fill="none" color="black" stroke="black" stroke-width="1.00" stroke-linecap="butt" stroke-linejoin="miter">
</g>
<g fill="none" color="black" stroke="currentColor" stroke-width="1.00" stroke-linecap="butt" stroke-linejoin="miter">
	<path stroke='black'  d='M64.14,18.01 L64.14,242.40 L724.82,242.40 L724.82,18.01 L64.14,18.01 Z  '/></g>
<g fill="none" color="black" stroke="currentColor" stroke-width="1.00" stroke-linecap="butt" stroke-linejoin="miter">
</g>
</g>
</svg>
